Modules/BetterCms.Module.Root/Scss/assets/icons/editor-cms-option.svg

<svg height="15" width="15" xmlns="http://www.w3.org/2000/svg" viewBox="0 0 15 15"><path fill="#303646" fill-rule="evenodd" d="m8.14 10.74c-2.32.43-4.32-1.57-3.88-3.89.25-1.29 1.31-2.34 2.6-2.59 2.32-.44 4.32 1.57 3.87 3.89-.24 1.29-1.3 2.34-2.59 2.59m5.48-3.24c0-.84.46-1.52 1.17-2.02.17-.11.25-.32.19-.52-.11-.3-.23-.59-.37-.87-.09-.18-.29-.26-.48-.24-.84.1-1.53-.27-2.12-.86-.59-.59-.82-1.28-.69-2.11.03-.2-.05-.41-.23-.49-.28-.14-.58-.26-.88-.37-.19-.06-.39.02-.51.18-.54.72-1.36 1.18-2.2 1.18-.84 0-1.66-.46-2.2-1.18-.12-.16-.32-.24-.51-.18-.3.11-.6.23-.88.37-.18.08-.26.29-.23.49.13.83-.1 1.52-.69 2.11-.59.59-1.28.96-2.12.86-.19-.02-.4.06-.48.24-.14.28-.26.57-.37.87-.06.2.02.41.19.52.71.5 1.16 1.18 1.16 2.02 0 .84-.45 1.66-1.17 2.2-.16.12-.24.32-.18.51.11.3.23.6.37.88.08.18.29.26.49.23.83-.13 1.52.1 2.11.69.59.59.82 1.28.69 2.11-.03.2.05.4.23.49.28.14.58.26.88.37.19.06.39-.02.51-.18.54-.72 1.36-1.18 2.2-1.18.84 0 1.66.46 2.2 1.18.12.16.32.24.51.18.3-.11.6-.23.88-.37.18-.09.27-.29.23-.49-.13-.83.1-1.52.69-2.11.59-.59 1.28-.96 2.12-.86.2.02.4-.06.48-.24.14-.28.26-.57.37-.87.06-.2-.02-.41-.19-.52-.71-.5-1.17-1.18-1.17-2.02"/></svg>

<?xml version="1.0" encoding="utf-8"?>
<!-- Generator: Avocode 2.4.5 - http://avocode.com -->
<svg height="15" width="15" xmlns:xlink="http://www.w3.org/1999/xlink" xmlns="http://www.w3.org/2000/svg" viewBox="0 0 15 15">
    <path fill="#303646" fill-rule="evenodd" d="M 8.14 10.74 C 5.82 11.17 3.82 9.17 4.26 6.85 C 4.51 5.56 5.57 4.51 6.86 4.26 C 9.18 3.82 11.18 5.83 10.73 8.15 C 10.49 9.44 9.43 10.49 8.14 10.74 M 13.62 7.5 C 13.62 6.66 14.08 5.98 14.79 5.48 C 14.96 5.37 15.04 5.16 14.98 4.96 C 14.87 4.66 14.75 4.37 14.61 4.09 C 14.52 3.91 14.32 3.83 14.13 3.85 C 13.29 3.95 12.6 3.58 12.01 2.99 C 11.42 2.4 11.19 1.71 11.32 0.88 C 11.35 0.68 11.27 0.47 11.09 0.39 C 10.81 0.25 10.51 0.13 10.21 0.02 C 10.02 -0.04 9.82 0.04 9.7 0.2 C 9.16 0.92 8.34 1.38 7.5 1.38 C 6.66 1.38 5.84 0.92 5.3 0.2 C 5.18 0.04 4.98 -0.04 4.79 0.02 C 4.49 0.13 4.19 0.25 3.91 0.39 C 3.73 0.47 3.65 0.68 3.68 0.88 C 3.81 1.71 3.58 2.4 2.99 2.99 C 2.4 3.58 1.71 3.95 0.87 3.85 C 0.68 3.83 0.47 3.91 0.39 4.09 C 0.25 4.37 0.13 4.66 0.02 4.96 C -0.04 5.16 0.04 5.37 0.21 5.48 C 0.92 5.98 1.37 6.66 1.37 7.5 C 1.37 8.34 0.92 9.16 0.2 9.7 C 0.04 9.82 -0.04 10.02 0.02 10.21 C 0.13 10.51 0.25 10.81 0.39 11.09 C 0.47 11.27 0.68 11.35 0.88 11.32 C 1.71 11.19 2.4 11.42 2.99 12.01 C 3.58 12.6 3.81 13.29 3.68 14.12 C 3.65 14.32 3.73 14.52 3.91 14.61 C 4.19 14.75 4.49 14.87 4.79 14.98 C 4.98 15.04 5.18 14.96 5.3 14.8 C 5.84 14.08 6.66 13.62 7.5 13.62 C 8.34 13.62 9.16 14.08 9.7 14.8 C 9.82 14.96 10.02 15.04 10.21 14.98 C 10.51 14.87 10.81 14.75 11.09 14.61 C 11.27 14.52 11.36 14.32 11.32 14.12 C 11.19 13.29 11.42 12.6 12.01 12.01 C 12.6 11.42 13.29 11.05 14.13 11.15 C 14.33 11.17 14.53 11.09 14.61 10.91 C 14.75 10.63 14.87 10.34 14.98 10.04 C 15.04 9.84 14.96 9.63 14.79 9.52 C 14.08 9.02 13.62 8.34 13.62 7.5" />
</svg>
